actions/22x22-light/insert-endnote.svg

<svg xmlns="http://www.w3.org/2000/svg" viewBox="0 0 22 22">
 <defs id="defs3051">
   <style type="text/css" id="current-color-scheme">
     .ColorScheme-Text {
       color:#4d4d4d;
     }
     </style>
 </defs>
   <path
      style="fill:currentColor;fill-opacity:1;stroke:none"
      d="m4 3v1 2 3 4 3h1 1v2 1h8v-1h-1-6v-2h4 3 1v-1-2-1-1.40625-4.59375h2v2 1 3h1v-3.59375-1.40625-1-1h-1-2v-1-1h-1zm1 1h8 1v1 1 4 1 2 2h-2-2-5v-6zm1 2v1h6v-1zm0 2v1h3v-1z"
      class="ColorScheme-Text" />
 <defs id="defs3051">
   <style type="text/css" id="current-color-scheme">
     .ColorScheme-Text {
       color:#3daee9;
     }
     </style>
 </defs>
   <path
      style="fill:currentColor;fill-opacity:1;stroke:none"
      d="m6 13v1h5v-1zm11 0v1h1v-1zm0 2v4h1v-4z"
      class="ColorScheme-Text" />
</svg>

<svg xmlns="http://www.w3.org/2000/svg" viewBox="0 0 22 22">
  <defs id="defs3051">
    <style type="text/css" id="current-color-scheme">
      .ColorScheme-Text {
        color:#4d4d4d;
      }
      .ColorScheme-Highlight {
        color:#3daee9;
      }
      </style>
  </defs>
 <path 
     style="fill:currentColor;fill-opacity:1;stroke:none" 
     d="M 4 3 L 4 4 L 4 6 L 4 9 L 4 13 L 4 16 L 5 16 L 6 16 L 6 18 L 6 19 L 14 19 L 14 18 L 13 18 L 7 18 L 7 16 L 11 16 L 14 16 L 15 16 L 15 15 L 15 13 L 15 12 L 15 10.59375 L 15 6 L 17 6 L 17 8 L 17 9 L 17 12 L 18 12 L 18 8.40625 L 18 7 L 18 6 L 18 5 L 17 5 L 15 5 L 15 4 L 15 3 L 14 3 L 4 3 z M 5 4 L 13 4 L 14 4 L 14 5 L 14 6 L 14 10 L 14 11 L 14 13 L 14 15 L 12 15 L 10 15 L 5 15 L 5 9 L 5 4 z M 6 6 L 6 7 L 12 7 L 12 6 L 6 6 z M 6 8 L 6 9 L 9 9 L 9 8 L 6 8 z "
     class="ColorScheme-Text"
     />
 <path 
     style="fill:currentColor;fill-opacity:1;stroke:none" 
     d="M 6 13 L 6 14 L 11 14 L 11 13 L 6 13 z M 17 13 L 17 14 L 18 14 L 18 13 L 17 13 z M 17 15 L 17 19 L 18 19 L 18 15 L 17 15 z "
     class="ColorScheme-Highlight"
     />
</svg>
